ix/close-square_bold.svg

<svg viewBox="0 0 24 24" fill="none" xmlns="http://www.w3.org/2000/svg" height="1em" width="1em">
  <path d="M16.19 2H7.81C4.17 2 2 4.17 2 7.81v8.37C2 19.83 4.17 22 7.81 22h8.37c3.64 0 5.81-2.17 5.81-5.81V7.81C22 4.17 19.83 2 16.19 2Zm-.83 12.3c.29.29.29.77 0 1.06-.15.15-.34.22-.53.22s-.38-.07-.53-.22l-2.3-2.3-2.3 2.3c-.15.15-.34.22-.53.22s-.38-.07-.53-.22a.754.754 0 0 1 0-1.06l2.3-2.3-2.3-2.3a.754.754 0 0 1 0-1.06c.29-.29.77-.29 1.06 0l2.3 2.3 2.3-2.3c.29-.29.77-.29 1.06 0 .29.29.29.77 0 1.06l-2.3 2.3 2.3 2.3Z" fill="#292D32"/>
</svg>

<svg viewBox="0 0 24 24" fill="none" xmlns="http://www.w3.org/2000/svg" height="1em" width="1em">
  <path d="M16.19 2H7.81C4.17 2 2 4.17 2 7.81V16.18C2 19.83 4.17 22 7.81 22H16.18C19.82 22 21.99 19.83 21.99 16.19V7.81C22 4.17 19.83 2 16.19 2ZM15.36 14.3C15.65 14.59 15.65 15.07 15.36 15.36C15.21 15.51 15.02 15.58 14.83 15.58C14.64 15.58 14.45 15.51 14.3 15.36L12 13.06L9.7 15.36C9.55 15.51 9.36 15.58 9.17 15.58C8.98 15.58 8.79 15.51 8.64 15.36C8.35 15.07 8.35 14.59 8.64 14.3L10.94 12L8.64 9.7C8.35 9.41 8.35 8.93 8.64 8.64C8.93 8.35 9.41 8.35 9.7 8.64L12 10.94L14.3 8.64C14.59 8.35 15.07 8.35 15.36 8.64C15.65 8.93 15.65 9.41 15.36 9.7L13.06 12L15.36 14.3Z" fill="#292D32"/>
</svg>
